X:12001
T:Love Came Down at Christmas
T:Garton
R:March
C:Trad.
O:Ireland
Z:Paul Hardy's Xmas Tunebook 2019 (see www.paulhardy.net). Creative Commons cc by-nc-sa licenced.
M:4/4
L:1/8
Q:1/4=140
K:G
"G"G3 A "Em"B2 e2|"G"d4 "D"d4|"G"d3 d "D"dBAB|"G"d3 d "D"d B A B|
"G"G3 A "Em"B2 e2|"G"d4 "D"d4|"G"d3 d "D"dBAB|"C"G2 G2 "G"G4|]
W:Love came down at Christmas,
W:Love all lovely, love divine;
W:Love was born at Christmas,
W:Star and angels gave the sign.
W:
W:(Christina Rossetti 1885)
% --------------------------------- M ---------------------------------------

